src/lib/packages/icons/src/assets/line/bell-on.svg

<svg width="24" height="24" viewBox="0 0 24 24" fill="none" xmlns="http://www.w3.org/2000/svg">
<path d="M12 21.75C11.012 21.75 10.124 21.237 9.62202 20.378C9.41402 20.02 9.534 19.561 9.892 19.352C10.248 19.144 10.708 19.264 10.918 19.622C11.377 20.409 12.623 20.409 13.082 19.622C13.291 19.264 13.751 19.144 14.108 19.352C14.466 19.56 14.587 20.02 14.378 20.378C13.876 21.237 12.988 21.75 12 21.75ZM20.675 18.325C20.8 18.065 20.765 17.757 20.586 17.532C20.567 17.509 18.745 15.189 18.745 12.5V8.99499C18.745 5.27599 15.719 2.25 12 2.25C8.28101 2.25 5.25501 5.27599 5.25501 8.99499V12.5C5.25501 15.189 3.43301 17.509 3.41401 17.532C3.23501 17.757 3.20002 18.066 3.32502 18.325C3.45002 18.584 3.71201 18.75 4.00001 18.75H20C20.288 18.75 20.55 18.584 20.675 18.325ZM6.75501 12.5V8.99499C6.75501 6.10299 9.10801 3.75 12 3.75C14.892 3.75 17.245 6.10299 17.245 8.99499V12.5C17.245 14.436 17.995 16.158 18.613 17.25H5.38599C6.00499 16.158 6.75501 14.436 6.75501 12.5ZM3.74601 8.07499C3.91701 6.36599 4.60702 4.78299 5.74302 3.49699C6.01702 3.18599 5.98701 2.712 5.67701 2.438C5.36601 2.163 4.89202 2.19299 4.61802 2.50399C3.27402 4.02699 2.456 5.90199 2.254 7.92599C2.212 8.33799 2.51299 8.70599 2.92499 8.74699C2.94999 8.74899 2.97601 8.751 3.00101 8.751C3.38101 8.75 3.70801 8.46099 3.74601 8.07499ZM21.075 8.746C21.487 8.705 21.788 8.337 21.746 7.925C21.544 5.902 20.726 4.027 19.382 2.503C19.109 2.193 18.634 2.16199 18.323 2.43699C18.012 2.71099 17.983 3.185 18.257 3.496C19.392 4.782 20.083 6.365 20.254 8.074C20.293 8.461 20.619 8.74899 20.999 8.74899C21.024 8.74999 21.049 8.749 21.075 8.746Z" fill="currentColor"/>
</svg>

<svg xmlns="http://www.w3.org/2000/svg" width="24" height="24" fill="none"><path fill="currentColor" d="M12 21.75a2.73 2.73 0 0 1-2.378-1.372.75.75 0 0 1 1.296-.756c.459.787 1.705.787 2.164 0a.751.751 0 0 1 1.296.756A2.73 2.73 0 0 1 12 21.75Zm8.675-3.425a.751.751 0 0 0-.089-.793c-.019-.023-1.841-2.343-1.841-5.032V8.995A6.753 6.753 0 0 0 12 2.25a6.753 6.753 0 0 0-6.745 6.745V12.5c0 2.689-1.822 5.009-1.841 5.032A.751.751 0 0 0 4 18.75h16a.75.75 0 0 0 .675-.425ZM6.755 12.5V8.995A5.251 5.251 0 0 1 12 3.75a5.251 5.251 0 0 1 5.245 5.245V12.5c0 1.936.75 3.658 1.368 4.75H5.386c.619-1.092 1.369-2.814 1.369-4.75ZM3.746 8.075a8.09 8.09 0 0 1 1.997-4.578.751.751 0 0 0-1.125-.993 9.586 9.586 0 0 0-2.364 5.422.75.75 0 1 0 1.492.149Zm17.329.671a.75.75 0 0 0 .671-.821 9.591 9.591 0 0 0-2.364-5.422.75.75 0 1 0-1.125.993 8.096 8.096 0 0 1 1.997 4.578.75.75 0 0 0 .821.672Z"/></svg>
